X:1
T:Eternal God, Whose Power Upholds
T:Uzzziah Christopher Burnap, 1895
T:Eternal God, Whose Power Upholds
T:Public Domain
T:Public Domain
T:Public Domain
C:Uzzziah Christopher Burnap, 1895
Z:Public Domain
%%score ( 1 2 ) ( 3 4 )
L:1/8
M:4/4
K:Ab
V:1 treble 
V:2 treble 
V:3 bass 
V:4 bass 
V:1
 [CE]2 | [CE]2 [CF]2 [CG]2 [CA]2 | [DA]3 [DF] [DG]2 [DA]2 | [C=A]2 [Ec]2 [DB]2 [DE]2 | %4
w: 1.~E-|ter- nal God, whose|power up- holds Both|flower and flam- ing|
w: 2.~O|God of love, whose|Spir- it wakes In|ev- ery hu- man|
w: 3.~O|God of truth, whom|sci- ence seeks And|rev- erent souls a-|
w: 4.~O|God of beau- ty,|oft re- vealed In|dreams of hu- man|
w: 5.~O|God of right- ous-|ness and grace, Seen|in the Christ, Thy|
 [Cc]6 [=Ec]2 | [Fc]3 [Fd] [Fc]2 [=EB]2 | [=EB]3 [FA] [FA]2 [FA]2 | [=Dc]3 [DB] [DA]2 [DF]2 | %8
w: star, To|Whom there is no|here nor there, No|time, no near nor|
w: breast, Whom|love, and love a-|lone can know, In|whom all hearts find|
w: dore, Who|light- est ev- ery|ear- nest mind Of|ev- ery clime and|
w: art, In|speech that flows to|mel- o- dy, In|ho- li- ness of|
w: Son, Whose|life and death re-|veal Thy face, By|Whom Thy will was|
 E6 E2 | (D2 z) [C=A] [DB]2 [Ec]2 | [DB]3 [CA] [CE]2 [Ec]2 | [Ec]3 [Ec] [Fd]2 [Ec]2 | %12
w: far, No|race, no for- eign|child un- sought, un-|known, O send us|
w: rest, Help|spread Thy gra- cious|greed and hate shall|cease, And kind- ness|
w: shore, Dis-|gloom of er- ror’s|ig- no- rance and|fear, Un- til true|
w: heart, Teach|ban all ug- li-|blinds our eyes to|Thee, Till all shall|
w: done. In-|her- alds of good|live Thy life di-|vine, Till Christ has|
 [DB]6 [_FB]2 | [EB]3 E E2 [EA]2 | [=EA]3 [EG] F2 [=B,=D]2 | [CE]2 [EA]2 [FA]2 [EG]2 | [EA]6 |] %17
w: forth, Thy|pro- phets true, To|lands Thine own! *|||
w: dwell in|hu- man hearts, And|earth find peace! *|||
w: wis- dom|from a- bove Shall|path- way clear! *|||
w: know the|love- li- ness Of|fair and free. *|||
w: formed in|all man- kind And|land is Thine! *|||
V:2
 x2 | x8 | x8 | x8 | x8 | x8 | x8 | x8 | E6 E2 | B3 C2 x3 | x8 | x8 | x8 | x3 E E2 x2 | x4 F2 x2 | %15
w: ||||||||a- lien|shore, No||||make all||
w: ||||||||us to|reign Till||||all the||
w: ||||||||pel the|night, Of||||make life’s||
w: ||||||||us to|ness That||||lives made||
w: ||||||||spire Thy|news To||||ev- ery||
 x8 | x6 |] %17
w: ||
w: ||
w: ||
w: ||
w: ||
V:3
 [A,,E,]2 | [A,,E,]2 [A,,E,]2 [A,,E,]2 [A,,E,]2 | [B,,E,]3 [B,,E,] [B,,E,]2 [B,,F,]2 | %3
 [E,^F,]2 [E,F,]2 [F,G,]2 [E,B,]2 | [A,,A,]6 [A,C]2 | [A,C]3 [A,C] [G,D]2 [G,D]2 | %6
 [F,D]3 [F,C] [F,C]2 [F,C]2 | [B,,A,]3 [B,,F,] [B,,C]2 [B,,A,]2 | [E,G,]6 E,2 | %9
 [E,G,]2 [E,^F,]2 [E,G,]2 [E,G,]2 | [A,,A,]3 [A,,A,] [A,,A,]2 A,2 | %11
 [F,=A,]3 [F,A,] [F,G,]2 [F,A,]2 | B,6 [A,B,]2 | [G,B,]3 [^F,=A,] [G,B,]2 [_A,C]2 | %14
 [C,C]3 [C,B,] [D,A,]2 [F,A,]2 | [E,A,]2 [E,C]2 [E,B,]2 [E,D]2 | [A,,C]6 |] %17
V:4
 x2 | x8 | x8 | x8 | x8 | x8 | x8 | x8 | x6 E,2 | x8 | x6 A,2 | x8 | B,6 x2 | x8 | x8 | x8 | x6 |] %17

